X:1
T:Orwell, LM
T:Orwell, LM
T:Lowell Mason (1792-1872)
T:Public Domain Courtesy of the Cyber Hymnal™
C:Lowell Mason (1792-1872)
Z:Public Domain
Z:Courtesy of the Cyber Hymnal™
%%score 1 ( 2 3 )
L:1/8
Q:1/4=100
M:2/4
K:Bb
V:1 treble 
V:2 bass 
V:3 bass 
V:1
 [DF]2 [EG][DF] | [DB]3 [DB] | [DB]2 [Fc]2 | [Fd]3 [FB] | [GB]2 [EG]2 | [DB]2 [DF]2 | %6
 [CF]2 [C=E]2 | [CF]4 | [DF]2 [EG][DF] | [DB]3 [DB] | [DB]2 [Fc]2 | [Fd]3 [FB] | [GB]2 [EG]2 | %13
 [DB]3 [DB] | [Ec]2 [CA]2 | [DB]4 |] %16
V:2
 [B,,B,]2 [B,,B,][B,,B,] | [B,,B,]3 [B,,B,] | [G,B,]2 [F,A,]2 | B,3 [D,B,] | [E,B,]2 [E,B,]2 | %5
 [B,,B,]2 [B,,B,]2 | [C,A,]2 [C,G,]2 | [F,A,]4 | [B,,B,]2 [B,,B,][B,,B,] | [B,,B,]3 [B,,B,] | %10
 [G,B,]2 [F,A,]2 | B,3 [D,B,] | [E,B,]2 [E,B,]2 | [B,,B,]3 [G,B,] | [E,G,]2 F,2 | [B,,F,]4 |] %16
V:3
 x4 | x4 | x4 | B,3 x | x4 | x4 | x4 | x4 | x4 | x4 | x4 | B,3 x | x4 | x4 | x2 F,2 | x4 |] %16

